X: 4
T:Constant Billy, Bucknell
M:6/8
L:1/8
S:CJS
A:Bucknell
P:A(AB)2AC
K:G
P:A
|:G2d BGB |c2A AFD|BAG E2E|AGF  G3:|
P:B
Gee e>de|ABc dBG|ABc dBG|ABc  d3 |
G2d BGB |c2A AFD|BAG E2E|DEF  G3||
P:C
Gee e>de|ABc dBG|ABc dBG|ABc  d3 |
G2d BGB |c2A AFD|\
(2BA G3 |(2EF G3|(2DE F3|G6     ||
